X:1
T:Title
%%score { ( 1 4 ) | ( 2 3 ) }
L:1/8
M:3/4
K:F
V:1 treble nm="Grand Piano"
V:4 treble 
V:2 bass 
V:3 bass 
V:1
 z2 z2[Q:1/4=100] C2 | F>E F2 [B,EG]2 | F->[FG] F2 A2 | G>F E2 G2 | F4 C2 | F>E F2 [B,EG]2 | %6
 F->[FG] F2 A2 | G>F E2 [B,CG]2 | [A,CF]4 [A,_EF]2 | B,2- [B,d]2 [B,^CB]2 | A,2- [A,c]2 [CFA]2 | %11
[M:7/8] [FA]2 G3 C2 |[M:3/4] [GB]>c B2 [CFA]2 | [CEG]4 C2 | [Ac]>d c2 [CGB]2 | [CFA]4 C2 | %16
 B>c B2 A2 | G4 C2 | c>d c2 B2 | A4 c2 | c>B A2 B2 | c4 F2 | d>c B2 d2 | c4 F2 | %24
 [DF]>[^CE] [DF]2 [CG]2 | A>_A =A2 [B,CG]2 |[M:2/4] [F,A,CF]4 |] %27
V:2
 z2 z2 C,2 | A,2 z2 z2 | z z/ B,/ A,2 [F,C]2 | B,>A, G,2 [C,B,C]2 | [F,A,C]4 [F,A,]2 | A,2 z2 z2 | %6
 z z/ B,/ A,2 [F,C]2 | B,>A, G,2 C,2 | F,4 F,2 | z z/[K:treble] B/ F2[K:bass] B,,2 | %10
 z z/[K:treble] A/ F2[K:bass] F,2 |[M:7/8] z2 E3 C,2 |[M:3/4] z z/[K:treble] A/ G2[K:bass] C,2 | %13
 C,4 C,2 | z z/[K:treble] B/ A2[K:bass] E,2 | F,4 C,2 | [CE]->[A,C-E-] [G,CE]2 [F,CF]2 | %17
 [E,C]4 B,2 | [CF]->[B,C-F-] [A,CF]2 [G,CE]2 | [F,CF]4 [F,A,F]2 | [A,F]>[B,G] [CF]2 [G,CE]2 | %21
 [A,CF]4 [A,C]2 | [B,F]4 z2 | [F,A,F]4 [F,A,_E]2 | [B,,B,]4 [B,,F,]2 | [C,C]4 z2 |[M:2/4] F,,4 |] %27
V:3
 x6 | [F,C]->[F,-G,C-] [F,A,C]2 C,2 | F,4 z2 | [C,C]4 z2 | x6 | [F,C]->[F,-G,C-] [F,A,C]2 C,2 | %6
 F,4 z2 | [C,C]4 z2 | x6 | B,,4[K:treble][K:bass] z2 | F,4[K:treble][K:bass] z2 | %11
[M:7/8] C,-C,- C,3 z2 |[M:3/4] C,4[K:treble][K:bass] z2 | x6 | C,4[K:treble][K:bass] z2 | x6 | %16
 G,2 z2 z2 | x6 | A,2 z2 z2 | x6 | F,4 z2 | x6 | z z/ C/ D2 [B,F]2 | x6 | x6 | F,>E, F,2 C,2 | %26
[M:2/4] x4 |] %27
V:4
 x6 | x6 | [CA]2 z2 z2 | x6 | x6 | x6 | [CA]2 z2 z2 | x6 | x6 | [DF]2 z2 z2 | [CF]2 z2 z2 | %11
[M:7/8] C-C- C3 z2 |[M:3/4] C4 z2 | x6 | C4 z2 | x6 | x6 | x6 | x6 | x6 | x6 | x6 | x6 | x6 | x6 | %25
 x6 |[M:2/4] x4 |] %27

